X:163
T:Davy Davy Knick Knack
M:4/4
K:G
D2 | GFGA B2 B2 | GFGA B2 B2 | dcBc A2 A2 | dcBc A2 A2 | 
GFGA B2 B2 | GFGA B2 B2 | dcBc AcBA | G2 B2 G2 :| 
z2 | d3 c B2 d2 | g2 g2 d2 z2 | dcBc A2 A2 | dcBc A2 A2 | 
d3 c B2 d2 | g2 g2 d2 z2 | dcBc AcBA | G2 B2 G2 :| 

